X:40
T:Jocky Has Gotten a Wife
M:9/4
L:1/4
S:'The Female Parson' opera by Ch. Coffey, 1730
B:SOITD
N:this tune is titled #buttered peas' in SOITD; from the same source
N:there is also  the usual Buttered Peas tune with this title. Coffey got the
N:Buttered Peas tune  right  in 1733 in 'The Board School'
Z:ps
K:GDorian
A|BAGGDGGDG|BAGGDGAFA|BAGGDGGDG|ABcBAGAFA||
Bcd g^fgG2B|ABcfef F2A|Bcd g^fgG2B| ABcfefF2A||
